X: 21061
U: p=!crescendo(!
U: P=!crescendo)!
M: 6/8
L: 1/8
K: Bb
=Ez F Bz c | d3- dBc | d3- de=e | f3- f=ef |\
a3- age | g3- gfd | Td2c e2d | B2z b2 |]
K: F
c !f!|\
c=Bc fef | ez d bz a | gfe dBd | c3 A2B |\
c=Bc fef | d^cd bag | fed cBG | FFF F"^D.C."F |]
c |!p!\
cz f az g | gz f ez f | pg2f gab P| c'cc ccc |\
!p!cz f az g | gz f e2d | c=Bc a2g | f3- "^D.C."f2 |]


